report_00007_2020-12-11T15:55:29.892Z/uses-webp-images/comparison/line/2_vs_3.svg

<svg width="640" height="500" xmlns="http://www.w3.org/2000/svg" xmlns:xlink="http://www.w3.org/1999/xlink"><path fill="#fff" d="M0 0h640v500H0z"/><defs><path id="d" stroke-width=".222" stroke="currentColor" d="M-1-1h2v2h-2z"/><path id="b" stroke-width=".222" stroke="currentColor" d="M0-1.33l-1.33 2h2.66z"/><path id="f" stroke-width=".222" stroke="currentColor" d="M0 1.33L1.265.411.782-1.067l-1.564-.009-.483 1.487z"/><use xlink:href="#b" id="c" stroke="currentColor" transform="rotate(180)"/><use xlink:href="#d" id="e" stroke="currentColor" transform="rotate(45)"/><circle id="a" stroke-width=".222" stroke="currentColor" cx="0" cy="0" r="1"/></defs><g fill="none" color="#000" stroke="currentColor"><path stroke="#000" d="M70.5 442.3h9m535.5 0h-9"/><text transform="translate(62.2 446.2)" stroke="none" fill="#000" font-family="Arial" font-size="12" text-anchor="end"><tspan>0</tspan></text></g><g fill="none" color="#000" stroke="currentColor"><path stroke="#000" d="M70.5 366.9h9m535.5 0h-9"/><text transform="translate(62.2 370.8)" stroke="none" fill="#000" font-family="Arial" font-size="12" text-anchor="end"><tspan>5000</tspan></text></g><g fill="none" color="#000" stroke="currentColor"><path stroke="#000" d="M70.5 291.6h9m535.5 0h-9"/><text transform="translate(62.2 295.5)" stroke="none" fill="#000" font-family="Arial" font-size="12" text-anchor="end"><tspan>10000</tspan></text></g><g fill="none" color="#000" stroke="currentColor"><path stroke="#000" d="M70.5 216.2h9m535.5 0h-9"/><text transform="translate(62.2 220.1)" stroke="none" fill="#000" font-family="Arial" font-size="12" text-anchor="end"><tspan>15000</tspan></text></g><g fill="none" color="#000" stroke="currentColor"><path stroke="#000" d="M70.5 140.9h9m535.5 0h-9"/><text transform="translate(62.2 144.8)" stroke="none" fill="#000" font-family="Arial" font-size="12" text-anchor="end"><tspan>20000</tspan></text></g><g fill="none" color="#000" stroke="currentColor"><path stroke="#000" d="M70.5 65.5h9m535.5 0h-9"/><text transform="translate(62.2 69.4)" stroke="none" fill="#000" font-family="Arial" font-size="12" text-anchor="end"><tspan>25000</tspan></text></g><g fill="none" color="#000" stroke="currentColor"><path stroke="#000" d="M70.5 446v-9m0-418.9v9"/><text transform="translate(70.5 467.9)" stroke="none" fill="#000" font-family="Arial" font-size="12" text-anchor="middle"><tspan>0</tspan></text></g><g fill="none" color="#000" stroke="currentColor"><path stroke="#000" d="M125.5 446v-9m0-418.9v9"/><text transform="translate(125.5 467.9)" stroke="none" fill="#000" font-family="Arial" font-size="12" text-anchor="middle"><tspan>10</tspan></text></g><g fill="none" color="#000" stroke="currentColor"><path stroke="#000" d="M180.5 446v-9m0-418.9v9"/><text transform="translate(180.5 467.9)" stroke="none" fill="#000" font-family="Arial" font-size="12" text-anchor="middle"><tspan>20</tspan></text></g><g fill="none" color="#000" stroke="currentColor"><path stroke="#000" d="M235.5 446v-9m0-418.9v9"/><text transform="translate(235.5 467.9)" stroke="none" fill="#000" font-family="Arial" font-size="12" text-anchor="middle"><tspan>30</tspan></text></g><g fill="none" color="#000" stroke="currentColor"><path stroke="#000" d="M290.5 446v-9m0-418.9v9"/><text transform="translate(290.5 467.9)" stroke="none" fill="#000" font-family="Arial" font-size="12" text-anchor="middle"><tspan>40</tspan></text></g><g fill="none" color="#000" stroke="currentColor"><path stroke="#000" d="M345.5 446v-9m0-418.9v9"/><text transform="translate(345.5 467.9)" stroke="none" fill="#000" font-family="Arial" font-size="12" text-anchor="middle"><tspan>50</tspan></text></g><g fill="none" color="#000" stroke="currentColor"><path stroke="#000" d="M400.5 446v-9m0-418.9v9"/><text transform="translate(400.5 467.9)" stroke="none" fill="#000" font-family="Arial" font-size="12" text-anchor="middle"><tspan>60</tspan></text></g><g fill="none" color="#000" stroke="currentColor"><path stroke="#000" d="M455.5 446v-9m0-418.9v9"/><text transform="translate(455.5 467.9)" stroke="none" fill="#000" font-family="Arial" font-size="12" text-anchor="middle"><tspan>70</tspan></text></g><g fill="none" color="#000" stroke="currentColor"><path stroke="#000" d="M510.5 446v-9m0-418.9v9"/><text transform="translate(510.5 467.9)" stroke="none" fill="#000" font-family="Arial" font-size="12" text-anchor="middle"><tspan>80</tspan></text></g><g fill="none" color="#000" stroke="currentColor"><path stroke="#000" d="M565.5 446v-9m0-418.9v9"/><text transform="translate(565.5 467.9)" stroke="none" fill="#000" font-family="Arial" font-size="12" text-anchor="middle"><tspan>90</tspan></text></g><path stroke="#000" d="M70.5 18.1V446H615V18.1H70.5z" fill="none" color="#000"/><text transform="translate(283.9 485.9)" stroke="none" fill="#000" font-family="Arial" font-size="12" text-anchor="end" color="#000"><tspan>pages+cached</tspan></text><path stroke="#9400D3" d="M292.2 482h42.2M70.5 437.8L76 26.3h27.5l5.5 2.3h5.5l5.5-2.3 5.5 2.3 5.5-2.3h5.5l5.5 2.3 5.5-2.3 5.5 2.3 5.5-2.3 5.5 2.3 5.5-2.3 5.5 2.3h11l5.5-2.3h11l5.5 2.3 5.5-2.3h5.5l5.5 2.3h5.5l5.5-2.3h33l5.5 2.3h5.5l5.5-2.3h11l5.5 2.3 5.5-2.3h11l5.5 2.1 5.5-2.1h5.5l5.5 2.3h11l5.5-2.3h5.5l5.5 2.3H384l5.5-2.3 5.5 2.3h5.5l5.5-2.3 5.5 2.3 5.5-2.3 5.5 2.3 5.5-2.3h16.5l5.5 2.3 5.5-2.3h33l5.5 2.3 5.5-2.3h5.5l5.5 2.3 5.5-2.3 5.5 2.3 5.5-2.3h11l5.5 2.3 5.5-2.3h5.5l5.5 2.3 5.5-2.3 5.5 2.3h11l5.5-2.3h5.5l5.5 2.3 5.5-2.3 5.5 2.3h5.5" fill="none" color="#000"/><text transform="translate(558.5 485.9)" stroke="none" fill="#000" font-family="Arial" font-size="12" text-anchor="end" color="#000"><tspan>pages+cached+nointeractive</tspan></text><path stroke="#009E73" d="M566.8 482H609M70.5 28.6l5.5-2.3h22l5.5 2.3h5.5l5.5-2.3 5.5 2.3 5.5-2.3 5.5 2.3h11l5.5-2.3h22l5.5 2.3 5.5-2.3H197l5.5 2.3h5.5l5.5-2.3 5.5 2.3 5.5-2.3 5.5 2.3 5.5-2.3h11l5.5 2.3h5.5l5.5-2.3h44l5.5 2.3h5.5l5.5-2.3H351l5.5 2.3h5.5l5.5-2.3 5.5 2.3h5.5l5.5-2.3h5.5l5.5 2.3 5.5-2.3 5.5 2.3 5.5-2.3h44l5.5 2.3 5.5-2.3h33l5.5 2.3 5.5-2.3h11l5.5 2.3h5.5l5.5-2.3h5.5l5.5 2.3 5.5-2.3 5.5 2.3 5.5-2.3h5.5l5.5 2.3 5.5-2.3h5.5l5.5 2.3 5.5-2.3H615" fill="none" color="#000"/><g fill="none" color="#000" stroke="currentColor"><path stroke="#000" d="M70.5 18.1V446H615V18.1H70.5z"/></g></svg>

<?xml version="1.0" encoding="utf-8"  standalone="no"?>
<svg 
 width="640" height="500"
 viewBox="0 0 640 500"
 xmlns="http://www.w3.org/2000/svg"
 xmlns:xlink="http://www.w3.org/1999/xlink"
>

<title>Gnuplot</title>
<desc>Produced by GNUPLOT 5.4 patchlevel 0 </desc>

<g id="gnuplot_canvas">

<rect x="0" y="0" width="640" height="500" fill="#ffffff"/>
<defs>

	<circle id='gpDot' r='0.5' stroke-width='0.5' stroke='currentColor'/>
	<path id='gpPt0' stroke-width='0.222' stroke='currentColor' d='M-1,0 h2 M0,-1 v2'/>
	<path id='gpPt1' stroke-width='0.222' stroke='currentColor' d='M-1,-1 L1,1 M1,-1 L-1,1'/>
	<path id='gpPt2' stroke-width='0.222' stroke='currentColor' d='M-1,0 L1,0 M0,-1 L0,1 M-1,-1 L1,1 M-1,1 L1,-1'/>
	<rect id='gpPt3' stroke-width='0.222' stroke='currentColor' x='-1' y='-1' width='2' height='2'/>
	<rect id='gpPt4' stroke-width='0.222' stroke='currentColor' fill='currentColor' x='-1' y='-1' width='2' height='2'/>
	<circle id='gpPt5' stroke-width='0.222' stroke='currentColor' cx='0' cy='0' r='1'/>
	<use xlink:href='#gpPt5' id='gpPt6' fill='currentColor' stroke='none'/>
	<path id='gpPt7' stroke-width='0.222' stroke='currentColor' d='M0,-1.33 L-1.33,0.67 L1.33,0.67 z'/>
	<use xlink:href='#gpPt7' id='gpPt8' fill='currentColor' stroke='none'/>
	<use xlink:href='#gpPt7' id='gpPt9' stroke='currentColor' transform='rotate(180)'/>
	<use xlink:href='#gpPt9' id='gpPt10' fill='currentColor' stroke='none'/>
	<use xlink:href='#gpPt3' id='gpPt11' stroke='currentColor' transform='rotate(45)'/>
	<use xlink:href='#gpPt11' id='gpPt12' fill='currentColor' stroke='none'/>
	<path id='gpPt13' stroke-width='0.222' stroke='currentColor' d='M0,1.330 L1.265,0.411 L0.782,-1.067 L-0.782,-1.076 L-1.265,0.411 z'/>
	<use xlink:href='#gpPt13' id='gpPt14' fill='currentColor' stroke='none'/>
	<filter id='textbox' filterUnits='objectBoundingBox' x='0' y='0' height='1' width='1'>
	  <feFlood flood-color='#FFFFFF' flood-opacity='1' result='bgnd'/>
	  <feComposite in='SourceGraphic' in2='bgnd' operator='atop'/>
	</filter>
	<filter id='greybox' filterUnits='objectBoundingBox' x='0' y='0' height='1' width='1'>
	  <feFlood flood-color='lightgrey' flood-opacity='1' result='grey'/>
	  <feComposite in='SourceGraphic' in2='grey' operator='atop'/>
	</filter>
</defs>
<g fill="none" color="#FFFFFF" stroke="black" stroke-width="1.00" stroke-linecap="butt" stroke-linejoin="miter">
</g>
<g fill="none" color="black" stroke="currentColor" stroke-width="1.00" stroke-linecap="butt" stroke-linejoin="miter">
	<path stroke='black'  d='M70.5,442.3 L79.5,442.3 M615.0,442.3 L606.0,442.3  '/>	<g transform="translate(62.2,446.2)" stroke="none" fill="black" font-family="Arial" font-size="12.00"  text-anchor="end">
		<text><tspan font-family="Arial" > 0</tspan></text>
	</g>
</g>
<g fill="none" color="black" stroke="currentColor" stroke-width="1.00" stroke-linecap="butt" stroke-linejoin="miter">
	<path stroke='black'  d='M70.5,366.9 L79.5,366.9 M615.0,366.9 L606.0,366.9  '/>	<g transform="translate(62.2,370.8)" stroke="none" fill="black" font-family="Arial" font-size="12.00"  text-anchor="end">
		<text><tspan font-family="Arial" > 5000</tspan></text>
	</g>
</g>
<g fill="none" color="black" stroke="currentColor" stroke-width="1.00" stroke-linecap="butt" stroke-linejoin="miter">
	<path stroke='black'  d='M70.5,291.6 L79.5,291.6 M615.0,291.6 L606.0,291.6  '/>	<g transform="translate(62.2,295.5)" stroke="none" fill="black" font-family="Arial" font-size="12.00"  text-anchor="end">
		<text><tspan font-family="Arial" > 10000</tspan></text>
	</g>
</g>
<g fill="none" color="black" stroke="currentColor" stroke-width="1.00" stroke-linecap="butt" stroke-linejoin="miter">
	<path stroke='black'  d='M70.5,216.2 L79.5,216.2 M615.0,216.2 L606.0,216.2  '/>	<g transform="translate(62.2,220.1)" stroke="none" fill="black" font-family="Arial" font-size="12.00"  text-anchor="end">
		<text><tspan font-family="Arial" > 15000</tspan></text>
	</g>
</g>
<g fill="none" color="black" stroke="currentColor" stroke-width="1.00" stroke-linecap="butt" stroke-linejoin="miter">
	<path stroke='black'  d='M70.5,140.9 L79.5,140.9 M615.0,140.9 L606.0,140.9  '/>	<g transform="translate(62.2,144.8)" stroke="none" fill="black" font-family="Arial" font-size="12.00"  text-anchor="end">
		<text><tspan font-family="Arial" > 20000</tspan></text>
	</g>
</g>
<g fill="none" color="black" stroke="currentColor" stroke-width="1.00" stroke-linecap="butt" stroke-linejoin="miter">
	<path stroke='black'  d='M70.5,65.5 L79.5,65.5 M615.0,65.5 L606.0,65.5  '/>	<g transform="translate(62.2,69.4)" stroke="none" fill="black" font-family="Arial" font-size="12.00"  text-anchor="end">
		<text><tspan font-family="Arial" > 25000</tspan></text>
	</g>
</g>
<g fill="none" color="black" stroke="currentColor" stroke-width="1.00" stroke-linecap="butt" stroke-linejoin="miter">
	<path stroke='black'  d='M70.5,446.0 L70.5,437.0 M70.5,18.1 L70.5,27.1  '/>	<g transform="translate(70.5,467.9)" stroke="none" fill="black" font-family="Arial" font-size="12.00"  text-anchor="middle">
		<text><tspan font-family="Arial" > 0</tspan></text>
	</g>
</g>
<g fill="none" color="black" stroke="currentColor" stroke-width="1.00" stroke-linecap="butt" stroke-linejoin="miter">
	<path stroke='black'  d='M125.5,446.0 L125.5,437.0 M125.5,18.1 L125.5,27.1  '/>	<g transform="translate(125.5,467.9)" stroke="none" fill="black" font-family="Arial" font-size="12.00"  text-anchor="middle">
		<text><tspan font-family="Arial" > 10</tspan></text>
	</g>
</g>
<g fill="none" color="black" stroke="currentColor" stroke-width="1.00" stroke-linecap="butt" stroke-linejoin="miter">
	<path stroke='black'  d='M180.5,446.0 L180.5,437.0 M180.5,18.1 L180.5,27.1  '/>	<g transform="translate(180.5,467.9)" stroke="none" fill="black" font-family="Arial" font-size="12.00"  text-anchor="middle">
		<text><tspan font-family="Arial" > 20</tspan></text>
	</g>
</g>
<g fill="none" color="black" stroke="currentColor" stroke-width="1.00" stroke-linecap="butt" stroke-linejoin="miter">
	<path stroke='black'  d='M235.5,446.0 L235.5,437.0 M235.5,18.1 L235.5,27.1  '/>	<g transform="translate(235.5,467.9)" stroke="none" fill="black" font-family="Arial" font-size="12.00"  text-anchor="middle">
		<text><tspan font-family="Arial" > 30</tspan></text>
	</g>
</g>
<g fill="none" color="black" stroke="currentColor" stroke-width="1.00" stroke-linecap="butt" stroke-linejoin="miter">
	<path stroke='black'  d='M290.5,446.0 L290.5,437.0 M290.5,18.1 L290.5,27.1  '/>	<g transform="translate(290.5,467.9)" stroke="none" fill="black" font-family="Arial" font-size="12.00"  text-anchor="middle">
		<text><tspan font-family="Arial" > 40</tspan></text>
	</g>
</g>
<g fill="none" color="black" stroke="currentColor" stroke-width="1.00" stroke-linecap="butt" stroke-linejoin="miter">
	<path stroke='black'  d='M345.5,446.0 L345.5,437.0 M345.5,18.1 L345.5,27.1  '/>	<g transform="translate(345.5,467.9)" stroke="none" fill="black" font-family="Arial" font-size="12.00"  text-anchor="middle">
		<text><tspan font-family="Arial" > 50</tspan></text>
	</g>
</g>
<g fill="none" color="black" stroke="currentColor" stroke-width="1.00" stroke-linecap="butt" stroke-linejoin="miter">
	<path stroke='black'  d='M400.5,446.0 L400.5,437.0 M400.5,18.1 L400.5,27.1  '/>	<g transform="translate(400.5,467.9)" stroke="none" fill="black" font-family="Arial" font-size="12.00"  text-anchor="middle">
		<text><tspan font-family="Arial" > 60</tspan></text>
	</g>
</g>
<g fill="none" color="black" stroke="currentColor" stroke-width="1.00" stroke-linecap="butt" stroke-linejoin="miter">
	<path stroke='black'  d='M455.5,446.0 L455.5,437.0 M455.5,18.1 L455.5,27.1  '/>	<g transform="translate(455.5,467.9)" stroke="none" fill="black" font-family="Arial" font-size="12.00"  text-anchor="middle">
		<text><tspan font-family="Arial" > 70</tspan></text>
	</g>
</g>
<g fill="none" color="black" stroke="currentColor" stroke-width="1.00" stroke-linecap="butt" stroke-linejoin="miter">
	<path stroke='black'  d='M510.5,446.0 L510.5,437.0 M510.5,18.1 L510.5,27.1  '/>	<g transform="translate(510.5,467.9)" stroke="none" fill="black" font-family="Arial" font-size="12.00"  text-anchor="middle">
		<text><tspan font-family="Arial" > 80</tspan></text>
	</g>
</g>
<g fill="none" color="black" stroke="currentColor" stroke-width="1.00" stroke-linecap="butt" stroke-linejoin="miter">
	<path stroke='black'  d='M565.5,446.0 L565.5,437.0 M565.5,18.1 L565.5,27.1  '/>	<g transform="translate(565.5,467.9)" stroke="none" fill="black" font-family="Arial" font-size="12.00"  text-anchor="middle">
		<text><tspan font-family="Arial" > 90</tspan></text>
	</g>
</g>
<g fill="none" color="black" stroke="currentColor" stroke-width="1.00" stroke-linecap="butt" stroke-linejoin="miter">
</g>
<g fill="none" color="black" stroke="currentColor" stroke-width="1.00" stroke-linecap="butt" stroke-linejoin="miter">
	<path stroke='black'  d='M70.5,18.1 L70.5,446.0 L615.0,446.0 L615.0,18.1 L70.5,18.1 Z  '/></g>
<g fill="none" color="black" stroke="currentColor" stroke-width="1.00" stroke-linecap="butt" stroke-linejoin="miter">
</g>
	<g id="gnuplot_plot_1" ><title>pages+cached</title>
<g fill="none" color="black" stroke="currentColor" stroke-width="1.00" stroke-linecap="butt" stroke-linejoin="miter">
	<g transform="translate(283.9,485.9)" stroke="none" fill="black" font-family="Arial" font-size="12.00"  text-anchor="end">
		<text><tspan font-family="Arial" >pages+cached</tspan></text>
	</g>
</g>
<g fill="none" color="black" stroke="currentColor" stroke-width="1.00" stroke-linecap="butt" stroke-linejoin="miter">
	<path stroke='rgb(148,   0, 211)'  d='M292.2,482.0 L334.4,482.0 M70.5,437.8 L76.0,26.3 L81.5,26.3 L87.0,26.3 L92.5,26.3 L98.0,26.3
		L103.5,26.3 L109.0,28.6 L114.5,28.6 L120.0,26.3 L125.5,28.6 L131.0,26.3 L136.5,26.3 L142.0,28.6
		L147.5,26.3 L153.0,28.6 L158.5,26.3 L164.0,28.6 L169.5,26.3 L175.0,28.6 L180.5,28.6 L186.0,28.6
		L191.5,26.3 L197.0,26.3 L202.5,26.3 L208.0,28.6 L213.5,26.3 L219.0,26.3 L224.5,28.6 L230.0,28.6
		L235.5,26.3 L241.0,26.3 L246.5,26.3 L252.0,26.3 L257.5,26.3 L263.0,26.3 L268.5,26.3 L274.0,28.6
		L279.5,28.6 L285.0,26.3 L290.5,26.3 L296.0,26.3 L301.5,28.6 L307.0,26.3 L312.5,26.3 L318.0,26.3
		L323.5,28.4 L329.0,26.3 L334.5,26.3 L340.0,28.6 L345.5,28.6 L351.0,28.6 L356.5,26.3 L362.0,26.3
		L367.5,28.6 L373.0,28.6 L378.5,28.6 L384.0,28.6 L389.5,26.3 L395.0,28.6 L400.5,28.6 L406.0,26.3
		L411.5,28.6 L417.0,26.3 L422.5,28.6 L428.0,26.3 L433.5,26.3 L439.0,26.3 L444.5,26.3 L450.0,28.6
		L455.5,26.3 L461.0,26.3 L466.5,26.3 L472.0,26.3 L477.5,26.3 L483.0,26.3 L488.5,26.3 L494.0,28.6
		L499.5,26.3 L505.0,26.3 L510.5,28.6 L516.0,26.3 L521.5,28.6 L527.0,26.3 L532.5,26.3 L538.0,26.3
		L543.5,28.6 L549.0,26.3 L554.5,26.3 L560.0,28.6 L565.5,26.3 L571.0,28.6 L576.5,28.6 L582.0,28.6
		L587.5,26.3 L593.0,26.3 L598.5,28.6 L604.0,26.3 L609.5,28.6 L615.0,28.6  '/></g>
	</g>
	<g id="gnuplot_plot_2" ><title>pages+cached+nointeractive</title>
<g fill="none" color="black" stroke="currentColor" stroke-width="1.00" stroke-linecap="butt" stroke-linejoin="miter">
	<g transform="translate(558.5,485.9)" stroke="none" fill="black" font-family="Arial" font-size="12.00"  text-anchor="end">
		<text><tspan font-family="Arial" >pages+cached+nointeractive</tspan></text>
	</g>
</g>
<g fill="none" color="black" stroke="currentColor" stroke-width="1.00" stroke-linecap="butt" stroke-linejoin="miter">
	<path stroke='rgb(  0, 158, 115)'  d='M566.8,482.0 L609.0,482.0 M70.5,28.6 L76.0,26.3 L81.5,26.3 L87.0,26.3 L92.5,26.3 L98.0,26.3
		L103.5,28.6 L109.0,28.6 L114.5,26.3 L120.0,28.6 L125.5,26.3 L131.0,28.6 L136.5,28.6 L142.0,28.6
		L147.5,26.3 L153.0,26.3 L158.5,26.3 L164.0,26.3 L169.5,26.3 L175.0,28.6 L180.5,26.3 L186.0,26.3
		L191.5,26.3 L197.0,26.3 L202.5,28.6 L208.0,28.6 L213.5,26.3 L219.0,28.6 L224.5,26.3 L230.0,28.6
		L235.5,26.3 L241.0,26.3 L246.5,26.3 L252.0,28.6 L257.5,28.6 L263.0,26.3 L268.5,26.3 L274.0,26.3
		L279.5,26.3 L285.0,26.3 L290.5,26.3 L296.0,26.3 L301.5,26.3 L307.0,26.3 L312.5,28.6 L318.0,28.6
		L323.5,26.3 L329.0,26.3 L334.5,26.3 L340.0,26.3 L345.5,26.3 L351.0,26.3 L356.5,28.6 L362.0,28.6
		L367.5,26.3 L373.0,28.6 L378.5,28.6 L384.0,26.3 L389.5,26.3 L395.0,28.6 L400.5,26.3 L406.0,28.6
		L411.5,26.3 L417.0,26.3 L422.5,26.3 L428.0,26.3 L433.5,26.3 L439.0,26.3 L444.5,26.3 L450.0,26.3
		L455.5,26.3 L461.0,28.6 L466.5,26.3 L472.0,26.3 L477.5,26.3 L483.0,26.3 L488.5,26.3 L494.0,26.3
		L499.5,26.3 L505.0,28.6 L510.5,26.3 L516.0,26.3 L521.5,26.3 L527.0,28.6 L532.5,28.6 L538.0,26.3
		L543.5,26.3 L549.0,28.6 L554.5,26.3 L560.0,28.6 L565.5,26.3 L571.0,26.3 L576.5,28.6 L582.0,26.3
		L587.5,26.3 L593.0,28.6 L598.5,26.3 L604.0,26.3 L609.5,26.3 L615.0,26.3  '/></g>
	</g>
<g fill="none" color="#FFFFFF" stroke="rgb(  0, 158, 115)" stroke-width="2.00" stroke-linecap="butt" stroke-linejoin="miter">
</g>
<g fill="none" color="black" stroke="currentColor" stroke-width="2.00" stroke-linecap="butt" stroke-linejoin="miter">
</g>
<g fill="none" color="black" stroke="black" stroke-width="1.00" stroke-linecap="butt" stroke-linejoin="miter">
</g>
<g fill="none" color="black" stroke="currentColor" stroke-width="1.00" stroke-linecap="butt" stroke-linejoin="miter">
	<path stroke='black'  d='M70.5,18.1 L70.5,446.0 L615.0,446.0 L615.0,18.1 L70.5,18.1 Z  '/></g>
<g fill="none" color="black" stroke="currentColor" stroke-width="1.00" stroke-linecap="butt" stroke-linejoin="miter">
</g>
</g>
</svg>
